Numix-Light/16/status/indicator-keyboard-Tr-2.svg

<?xml version="1.0" encoding="UTF-8" standalone="no"?>
<svg
   xmlns:dc="http://purl.org/dc/elements/1.1/"
   xmlns:cc="http://creativecommons.org/ns#"
   xmlns:rdf="http://www.w3.org/1999/02/22-rdf-syntax-ns#"
   xmlns:svg="http://www.w3.org/2000/svg"
   xmlns="http://www.w3.org/2000/svg"
   xmlns:sodipodi="http://sodipodi.sourceforge.net/DTD/sodipodi-0.dtd"
   xmlns:inkscape="http://www.inkscape.org/namespaces/inkscape"
   viewBox="0 0 16 16"
   id="svg2"
   version="1.1"
   inkscape:version="0.91 r13725"
   sodipodi:docname="indicator-keyboard-Tr-2.svg">
  <metadata
     id="metadata14">
    <rdf:RDF>
      <cc:Work
         rdf:about="">
        <dc:format>image/svg+xml</dc:format>
        <dc:type
           rdf:resource="http://purl.org/dc/dcmitype/StillImage" />
      </cc:Work>
    </rdf:RDF>
  </metadata>
  <defs
     id="defs12" />
  <sodipodi:namedview
     pagecolor="#ffffff"
     bordercolor="#666666"
     borderopacity="1"
     objecttolerance="10"
     gridtolerance="10"
     guidetolerance="10"
     inkscape:pageopacity="0"
     inkscape:pageshadow="2"
     inkscape:window-width="640"
     inkscape:window-height="480"
     id="namedview10"
     showgrid="false"
     inkscape:zoom="14.75"
     inkscape:cx="8"
     inkscape:cy="8"
     inkscape:window-x="65"
     inkscape:window-y="24"
     inkscape:window-maximized="0"
     inkscape:current-layer="svg2" />
  <path
     style="fill:#353535;fill-opacity:1"
     d="M 1.5996094 0 C 0.71320937 2.9605947e-16 0 0.71320937 0 1.5996094 L 0 14.400391 C 2.9605947e-16 15.286791 0.71320937 16 1.5996094 16 L 14.400391 16 C 15.286791 16 16 15.286791 16 14.400391 L 16 1.5996094 C 16 0.71320937 15.286791 0 14.400391 0 L 1.5996094 0 z M 2.6601562 4.859375 L 7.2675781 4.859375 L 7.2675781 5.390625 L 5.2695312 5.390625 L 5.2695312 11.095703 L 4.6582031 11.095703 L 4.6582031 5.390625 L 2.6601562 5.390625 L 2.6601562 4.859375 z M 9.53125 6.3535156 C 9.72325 6.3535156 9.9042654 6.3684375 10.072266 6.3984375 C 10.246266 6.4284375 10.365641 6.4582812 10.431641 6.4882812 L 10.314453 6.9921875 C 10.266453 6.9681875 10.167578 6.9439219 10.017578 6.9199219 C 9.8735779 6.8899219 9.6814063 6.875 9.4414062 6.875 C 9.1894062 6.875 8.9860781 6.8936875 8.8300781 6.9296875 C 8.6800781 6.9656875 8.5812031 6.9955312 8.5332031 7.0195312 L 8.5332031 11.095703 L 7.9472656 11.095703 L 7.9472656 6.6582031 C 8.0972656 6.5922031 8.3043594 6.5269375 8.5683594 6.4609375 C 8.8323594 6.3889375 9.15325 6.3535156 9.53125 6.3535156 z M 12.011719 8.7539062 C 12.405619 8.7539062 12.701491 8.851875 12.900391 9.046875 C 13.099291 9.237975 13.199219 9.5044563 13.199219 9.8476562 C 13.199219 9.9997563 13.171787 10.14475 13.117188 10.28125 C 13.062587 10.41385 12.988131 10.543169 12.894531 10.667969 C 12.804831 10.792769 12.700984 10.912297 12.583984 11.029297 C 12.466984 11.146297 12.349416 11.263859 12.228516 11.380859 C 12.127116 11.478359 12.027187 11.578288 11.929688 11.679688 C 11.836088 11.777187 11.749875 11.877116 11.671875 11.978516 C 11.597775 12.076016 11.537034 12.172031 11.490234 12.269531 C 11.447334 12.363131 11.425781 12.457181 11.425781 12.550781 L 11.425781 12.5625 L 13.339844 12.5625 L 13.339844 12.896484 L 11.005859 12.896484 C 11.005859 12.888684 11.003933 12.874969 11 12.855469 L 11 12.755859 C 11 12.572559 11.033309 12.402094 11.099609 12.246094 C 11.165909 12.086194 11.248209 11.937275 11.349609 11.796875 C 11.454909 11.656475 11.570513 11.525197 11.695312 11.404297 C 11.824012 11.283397 11.947453 11.165834 12.064453 11.052734 C 12.161953 10.959134 12.254044 10.869003 12.339844 10.783203 C 12.429544 10.693503 12.505966 10.603366 12.572266 10.509766 C 12.638566 10.416166 12.691469 10.316237 12.730469 10.210938 C 12.769469 10.105638 12.789062 9.9900344 12.789062 9.8652344 C 12.789062 9.5922344 12.714606 9.39825 12.566406 9.28125 C 12.422106 9.16035 12.239878 9.0996094 12.017578 9.0996094 C 11.892778 9.0996094 11.781094 9.1152844 11.683594 9.1464844 C 11.586094 9.1776844 11.499881 9.2149125 11.425781 9.2578125 C 11.355581 9.2968125 11.296794 9.3379594 11.246094 9.3808594 C 11.195394 9.4237594 11.158166 9.4570688 11.134766 9.4804688 L 10.935547 9.2167969 C 10.958947 9.1894969 11.000094 9.1503094 11.058594 9.0996094 C 11.120994 9.0450094 11.197409 8.9921062 11.287109 8.9414062 C 11.380709 8.8907063 11.486522 8.8476 11.607422 8.8125 C 11.728322 8.7735 11.863519 8.7539063 12.011719 8.7539062 z "
     id="path4" />
</svg>

<svg xmlns="http://www.w3.org/2000/svg" viewBox="0 0 16 16">
 <path d="m 1.6 0 c -0.886 0 -1.6 0.713 -1.6 1.6 l 0 12.801 c 0 0.886 0.713 1.6 1.6 1.6 l 12.801 0 c 0.886 0 1.6 -0.713 1.6 -1.6 l 0 -12.801 c 0 -0.886 -0.713 -1.6 -1.6 -1.6 l -12.801 0 z m 1.061 4.859 l 4.607 0 l 0 0.531 l -1.998 0 l 0 5.705 l -0.611 0 l 0 -5.705 l -1.998 0 l 0 -0.531 z m 6.871 1.494 c 0.192 0 0.373 0.015 0.541 0.045 c 0.174 0.03 0.293 0.06 0.359 0.09 l -0.117 0.504 c -0.048 -0.024 -0.147 -0.048 -0.297 -0.072 c -0.144 -0.03 -0.336 -0.045 -0.576 -0.045 c -0.252 0 -0.455 0.019 -0.611 0.055 c -0.15 0.036 -0.249 0.066 -0.297 0.09 l 0 4.076 l -0.586 0 l 0 -4.437 c 0.15 -0.066 0.357 -0.131 0.621 -0.197 c 0.264 -0.072 0.585 -0.107 0.963 -0.107 z m 2.48 2.4 c 0.394 0 0.69 0.098 0.889 0.293 c 0.199 0.191 0.299 0.458 0.299 0.801 c 0 0.152 -0.027 0.297 -0.082 0.434 c -0.055 0.133 -0.129 0.262 -0.223 0.387 c -0.09 0.125 -0.194 0.244 -0.311 0.361 c -0.117 0.117 -0.235 0.235 -0.355 0.352 c -0.101 0.098 -0.201 0.197 -0.299 0.299 c -0.094 0.097 -0.18 0.197 -0.258 0.299 c -0.074 0.097 -0.135 0.194 -0.182 0.291 c -0.043 0.094 -0.064 0.188 -0.064 0.281 l 0 0.012 l 1.914 0 l 0 0.334 l -2.334 0 c 0 -0.008 -0.002 -0.022 -0.006 -0.041 l 0 -0.1 c 0 -0.183 0.033 -0.354 0.1 -0.51 c 0.066 -0.16 0.149 -0.309 0.25 -0.449 c 0.105 -0.14 0.221 -0.272 0.346 -0.393 c 0.129 -0.121 0.252 -0.238 0.369 -0.352 c 0.098 -0.094 0.19 -0.184 0.275 -0.27 c 0.09 -0.09 0.166 -0.18 0.232 -0.273 c 0.066 -0.094 0.119 -0.194 0.158 -0.299 c 0.039 -0.105 0.059 -0.221 0.059 -0.346 c 0 -0.273 -0.074 -0.467 -0.223 -0.584 c -0.144 -0.121 -0.327 -0.182 -0.549 -0.182 c -0.125 0 -0.236 0.016 -0.334 0.047 c -0.098 0.031 -0.184 0.068 -0.258 0.111 c -0.07 0.039 -0.129 0.08 -0.18 0.123 c -0.051 0.043 -0.088 0.076 -0.111 0.1 l -0.199 -0.264 c 0.023 -0.027 0.065 -0.066 0.123 -0.117 c 0.062 -0.055 0.139 -0.108 0.229 -0.158 c 0.094 -0.051 0.199 -0.094 0.32 -0.129 c 0.121 -0.039 0.256 -0.059 0.404 -0.059 z" style="fill:#353535;fill-opacity:1"/>
</svg>
